X: 15785
T: Good Templar, The
R: reel
M: 4/4
K: Dmajor
BFBd cAFA|ABBd cAFA|GBAG FAdf|gfed cA A2|
BFBd cAFA|ABBd cAFD|GBAG FAdf|gecA d2 dc|
BFBd cAFA|ABBd cAFA|GBAG FAdf|gfed cA A/B/c|
d2 df edcA|BdcA BAFA|GBAG FAdf|gfed cdeg||
|:fdfa gece|dfed cA A2|fdfa ge e2|gabg edce|
fdfa gece|dfed cA A2|BGBd cdec|1 dfec d2 de:|2 dfec d2cd||

